X: 981
T: Trombolin
C:Bill Monroe
B: jims roots
M:4/4
L:1/8
Q: 1/4=100
K:G
V:1 
gg | gbge fgfe | dged BGGA | _BAG=B AGED | GDG,2 [D4B4g4]||
"G"G,4 (GF=F)G, | G,B,DG GG,B,G, | "C"CCCC CCCD | EGGA _BGA2 |
"G"(_B,=B,)B,B, (GF=F)G, | G,B,DG GG,B,D | "D"DFFd dD_F=F | [D2d][D2d][Dd]zG,2 ||
"G"(G,_B,=B,)G (GF=F)G, | G,B,DG GG,B,G, | "C"CCCC CCCD | EGGA _BGA2 |
"G"(_B,=B,)DG (GEDG,)| "D"DFFd dc(_B=B) | "G"G2 (E^C)(_B,=B,) [B,2G] | [B,G][B,G][B,G][B,G] [B,2G]|]
"G"eggg g2ga | gedg eggb | gedg edA(^A | B)AGE DB,A,B, |
G,A,B,D EEEg | gedc BAED | "D"E(=F^F)d ddd[dg] | [d2g]g2 g2gg ||
"G"gage =fgfe | dGAG EGGA | _BDG=B AGED | GDGE DB,A,G, |
G,A,B,D  EGGg | gedc BGED | "D"E(=F^F)d dc(_B=B) | "G"G2 ((3D_DC) ((3_B,B,D) y[B,2G] |]
% abcbook-tune_id 6298c297021078f3f4e7aed3


% abcbook-boost 0
% abcbook-tablature 
% abcbook-transpose 
% abcbook-lastupdated 1654178456273
% abcbook-soundfonts 
% abcbook-repeats 1


